X: 86
T: No_176_Steal_Partner_Dance_Song_(e).krn
N: Derived from No_176_Steal_Partner_Dance_Song_(e).krn
%%abc-version 2.0
%%abcx-abcm2ps-target-version 5.9.1 (29 Sep 2008)
%%abc-creator hum2abc beta
%%abcx-conversion-date 2019/03/15 08:38:45
%%humdrum-veritas 2334712060
%%humdrum-veritas-data 3329837846
%%linebreak <none>
%%barnumbers 0
L: 1/16
M: 2/4
K: G clef=bass
[K:clef=bass][M:2/4]D2 (3B,B,B, G,2 z2 ||  
[M:3/8]D2 (3B,B,B, G,2 ||  
[M:2/4]B,2B,G, B,3G, ||  
[M:3/8]D,2 (3E,E,D, D,2 ||  
[M:2/4]D,2G,G, G,2 z2 | 
D,2G,G, G,3G, ||  
[M:3/8]D,2E,D,D,2 ||  
[M:2/4]B,2B,B, G,2 z2 | 
B,2DD B,3G, ||  
[M:3/8]D,2 (3E,E,D, D,2 ||  
[M:2/4]D,2G,G, G,2 z2 | 
D,2G,G, G,3G, | 
D,2E,D,D,4 |]  



